X: 599
T: Ping diao
L: 1/8
M: 2/4
K: F
c> c c c [I:setbarnb 1]| 
f f d f | 
g> f f d | 
g c' g f | 
d c d A | 
c2f2 | 
d> c A G | 
F4 | 
c> A G F | 
Gc2A | 
c A G F | 
G AG2 | 
c> c c c | 
f f d f | 
g> c' g d | 
c4 |]

@@@ Tune index: 9473
